X: 40216
T: Tinkers'
R: reel
M: 4/4
K: Dmajor
F2EF D3E|FDED FDED|FDEF D3E|1 FABc dBAG:|2 FABc d2cd||
edBd egfe|fdAd fgaf|edBd egfe|dBAF GFEd|
edBd egfe|fdad bdad|gbge fafd|edBA dBAG||

